packages/katcn/src/icons/svg/speaker.svg

<svg width="24" height="24" viewBox="0 0 24 24" fill="none" xmlns="http://www.w3.org/2000/svg">
<path fill-rule="evenodd" clip-rule="evenodd" d="M17.4497 2.34812C18.3521 2.84187 19 3.8212 19 5.00034V15.2001C19 17.5872 16.3566 19.0016 14.4129 17.614C14.391 17.5983 14.3697 17.5818 14.3491 17.5644L13.2824 16.6644C13.2671 16.6515 13.2523 16.6382 13.2378 16.6244C12.4178 15.8439 11.3957 15.3575 10.2727 15.1783V19.1C10.2727 20.6867 9.11266 22 7.52727 22C5.90924 22 4.78182 20.5511 4.78182 19.1V14.9877C2.62548 14.4961 1 12.4543 1 10.1002C1 8.77461 1.46788 7.49771 2.46858 6.58071C3.27731 5.75574 4.38617 5.10032 5.78182 5.10032H9.24327C10.7775 5.00713 12.2005 4.48202 13.2746 3.64148L14.31 2.67083C14.3301 2.65201 14.3509 2.63403 14.3725 2.61693C15.3435 1.84668 16.5329 1.84646 17.4497 2.34812ZM15.6427 4.1629L14.6112 5.1299C14.5911 5.14871 14.5703 5.16669 14.5487 5.18379C13.1116 6.32377 11.2611 6.98804 9.32992 7.09868C9.31088 7.09977 9.29181 7.10032 9.27273 7.10032H5.78182C5.05732 7.10032 4.42847 7.43243 3.88153 7.99644C3.86606 8.0124 3.85006 8.02784 3.83355 8.04273C3.30005 8.52412 3 9.23695 3 10.1002C3 11.7938 4.34256 13.1001 5.78182 13.1001C6.3341 13.1001 6.78182 13.5479 6.78182 14.1001V19.1C6.78182 19.649 7.20591 20 7.52727 20C7.88128 20 8.27273 19.7133 8.27273 19.1V14.1001C8.27273 13.5479 8.72044 13.1001 9.27273 13.1001C11.2405 13.1001 13.1338 13.7758 14.5942 15.1544L15.6023 16.005C16.1789 16.3864 17 16.0002 17 15.2001V5.00034C17 4.57951 16.7752 4.25887 16.4897 4.10263C16.2271 3.95895 15.9246 3.95425 15.6427 4.1629Z" fill="black"/>
<path fill-rule="evenodd" clip-rule="evenodd" d="M22 7C22.5523 7 23 7.44772 23 8V12C23 12.5523 22.5523 13 22 13C21.4477 13 21 12.5523 21 12V8C21 7.44772 21.4477 7 22 7Z" fill="black"/>
</svg>

<svg xmlns="http://www.w3.org/2000/svg" fill="none" viewBox="0 0 24 24"><path fill="#000" fill-rule="evenodd" d="M17.45 2.348A3 3 0 0 1 19 5v10.2c0 2.387-2.643 3.802-4.587 2.414l-.064-.05-1.067-.9-.044-.04a5.5 5.5 0 0 0-2.965-1.446V19.1c0 1.587-1.16 2.9-2.746 2.9-1.618 0-2.745-1.449-2.745-2.9v-4.112C2.625 14.496 1 12.454 1 10.1c0-1.325.468-2.602 1.469-3.52.808-.824 1.917-1.48 3.313-1.48h3.461c1.534-.093 2.957-.618 4.032-1.459l1.035-.97.063-.054c.97-.77 2.16-.77 3.077-.269m-1.807 1.815-1.032.967-.062.054c-1.437 1.14-3.288 1.804-5.22 1.915l-.056.001H5.782c-.725 0-1.354.332-1.9.896l-.048.047C3.3 8.524 3 9.237 3 10.1c0 1.694 1.343 3 2.782 3a1 1 0 0 1 1 1v5c0 .549.424.9.745.9.354 0 .746-.287.746-.9v-5a1 1 0 0 1 1-1c1.968 0 3.86.676 5.321 2.054l1.008.851C16.18 16.386 17 16 17 15.2V5c0-.42-.225-.741-.51-.897a.75.75 0 0 0-.847.06M22 7a1 1 0 0 1 1 1v4a1 1 0 1 1-2 0V8a1 1 0 0 1 1-1" clip-rule="evenodd"/></svg>
